icons/svg/snapchat.svg

﻿<?xml version="1.0" encoding="utf-8"?>
<!DOCTYPE svg PUBLIC "-//W3C//DTD SVG 1.1//EN" "http://www.w3.org/Graphics/SVG/1.1/DTD/svg11.dtd">
<svg xmlns="http://www.w3.org/2000/svg" xmlns:xlink="http://www.w3.org/1999/xlink" version="1.1" baseProfile="full" width="24" height="24" viewBox="0 0 24.00 24.00" enable-background="new 0 0 24.00 24.00" xml:space="preserve">
	<path fill="#000000" fill-opacity="1" stroke-linejoin="round" d="M 12,20.4467C 10.8148,20.4497 10.0981,19.943 9.46575,19.4956C 9.01247,19.1754 8.58498,18.8731 8.08418,18.7898C 6.93122,18.7283 6.59454,18.7944 5.96629,18.8973C 5.86072,18.8973 5.73255,18.8739 5.67905,18.6914C 5.50364,17.9379 5.45033,17.733 5.32465,17.7136C 3.98043,17.5063 3.18618,17.2006 3.02796,16.8307C 2.99386,16.6037 3.07172,16.5069 3.18054,16.4888C 4.24803,16.3131 5.1972,15.7488 6.00192,14.8112C 6.62526,14.0854 6.93136,13.3919 6.96428,13.3153C 7.12411,12.9902 7.15497,12.7183 7.06101,12.4969C 6.8878,12.0884 6.31419,11.9064 5.67982,11.6996C 5.34338,11.5667 4.79007,11.2859 4.86378,10.8984C 4.91747,10.6158 5.29126,10.419 5.81414,10.463C 6.1555,10.623 6.46265,10.704 6.72667,10.704C 7.05513,10.704 7.21377,10.579 7.25213,10.5434C 7.1426,8.77895 7.04644,7.25263 7.43686,6.37736C 8.60538,3.75742 11.0835,3.55363 12,3.55192C 12.9165,3.55363 15.3946,3.75742 16.5631,6.37736C 16.9536,7.25263 16.8574,8.77895 16.7479,10.5434C 16.7862,10.579 16.9449,10.704 17.2733,10.704C 17.5373,10.704 17.8445,10.623 18.1859,10.463C 18.7087,10.419 19.0825,10.6158 19.1362,10.8984C 19.2099,11.2859 18.6566,11.5667 18.3202,11.6996C 17.6858,11.9064 17.1122,12.0884 16.939,12.4969C 16.845,12.7183 16.8759,12.9902 17.0357,13.3153C 17.0686,13.3919 17.3747,14.0854 17.9981,14.8112C 18.8028,15.7488 19.752,16.3131 20.8195,16.4888C 20.9283,16.5069 21.0061,16.6037 20.972,16.8307C 20.8138,17.2006 20.0196,17.5063 18.6753,17.7136C 18.5497,17.733 18.4964,17.9379 18.321,18.6914C 18.2674,18.8739 18.1393,18.8973 18.0337,18.8973C 17.4055,18.7944 17.0688,18.7283 15.9158,18.7898C 15.415,18.8731 14.9875,19.1754 14.5342,19.4956C 13.9019,19.943 13.1852,20.4497 12,20.4467 Z "/>
</svg>

<svg xmlns="http://www.w3.org/2000/svg" version="1.1" baseProfile="full" width="24" height="24" viewBox="0 0 24.00 24.00" xml:space="preserve"><path fill="#000" fill-opacity="1" stroke-linejoin="round" d="M12 20.447c-1.185.003-1.902-.504-2.534-.95-.454-.322-.88-.624-1.382-.707-1.153-.062-1.49.004-2.118.107-.105 0-.233-.023-.287-.206-.176-.752-.23-.957-.355-.976-1.345-.208-2.14-.513-2.297-.883-.034-.226.044-.323.153-.34 1.068-.177 2.017-.74 2.822-1.68.623-.725.93-1.418.962-1.495.16-.325.19-.597.097-.818-.172-.41-.746-.59-1.38-.797-.337-.133-.89-.414-.816-.802.053-.282.427-.48.95-.435.34.16.65.24.913.24.328 0 .487-.124.525-.16-.11-1.764-.206-3.29.185-4.166C8.605 3.757 11.084 3.554 12 3.552c.916.002 3.395.205 4.563 2.825.39.876.294 2.402.185 4.166.038.036.197.16.525.16.264 0 .572-.08.913-.24.523-.044.896.153.95.435.074.388-.48.67-.816.802-.634.206-1.208.388-1.38.797-.095.22-.064.493.096.818.033.077.34.77.962 1.496.805.94 1.754 1.503 2.822 1.68.108.017.186.114.152.34-.158.37-.952.676-2.297.884-.125.02-.18.224-.354.977-.053.184-.18.207-.286.207-.628-.103-.965-.17-2.118-.107-.5.083-.928.385-1.382.706-.632.447-1.35.954-2.534.95z"/></svg>
